X:4820
T:Old Stone Jar, The
O:england
S:Digital Tradition, stonejar
M:4/4
L:1/8
Q:2/4=100
W:In 'Frisco town there lived a man and Jack Marr was his name;
W:And in the days of the Cape Horn Trade, he played the Shanghai game.
W:His wife's name was Mary Ann, sailors knew both near and far;
W:An' when they [played the Shanghai game, the used the big stone jar.
W:
W:  Chorus:
W:  In the Old Virginia Lowlands, Lowlands Low
W:  In the Old Virginia Lowlands Low.
W:
W:The pair thcy played the Shanghai game, wuz known both near an' far
W:They nevcr missed a lucky chance to use the big stone jar.
W:
W:A hell-ship she wuz short o' hands, o' full red-blooded tars,
W:Missus an' Larry would prime the beer in their ol' big stone jar.
W:
W:Shellbacks an' farmers jist the same sailed into Larry Marr's,
W:And sailed away around the Horn, helped by the big stone jar.
W:
W:In 'Frisco town their names is known, as is the Cape Horn Bar,
W:An' the dope they serve out to ol' Jack, from the big stone jar.
W:
W:From the Barbary Coast steer clear, me boys, an' from ol' Larry Marr,
W:Or else damn soon shanghaied ye'll be by Larry's big stone jar.
W:
W:Shanghaied away in a skys'l-ship around Cape Horn so far,
W:Goodbye to all the boys an' girls an' Larry's big stone jar.
K:F
D2|GGG4D2|FFF4D2|GGG4D2|F6D2|\
GGG4DD|F2F2 D2B,-C|D3C B,2A,2|G,6 D2|
G2G4D2|GGF4DD|G2G2 G3D|F6D2|\
G2G2 G3D|F2F2 D2B,C|D3C B,2A,2|G,4 G2A2 |
B3B A2F2|G4 D4|d4 c4|d4 G2A2|\
B3B A2F2|G4 D4|G6||


